assets/icons/alert.svg

<svg width="25" height="25" viewBox="0 0 25 25" fill="none" xmlns="http://www.w3.org/2000/svg">
<g id="alert">
<path id="iconDefault" fill-rule="evenodd" clip-rule="evenodd" d="M12.5 3.95837C7.78255 3.95837 3.95831 7.78261 3.95831 12.5C3.95831 17.2175 7.78255 21.0417 12.5 21.0417C17.2174 21.0417 21.0416 17.2175 21.0416 12.5C21.0416 7.78261 17.2174 3.95837 12.5 3.95837ZM2.70831 12.5C2.70831 7.09225 7.09219 2.70837 12.5 2.70837C17.9078 2.70837 22.2916 7.09225 22.2916 12.5C22.2916 17.9078 17.9078 22.2917 12.5 22.2917C7.09219 22.2917 2.70831 17.9078 2.70831 12.5ZM12.5 7.70837C12.8452 7.70837 13.125 7.9882 13.125 8.33337V13.3334C13.125 13.6786 12.8452 13.9584 12.5 13.9584C12.1548 13.9584 11.875 13.6786 11.875 13.3334V8.33337C11.875 7.9882 12.1548 7.70837 12.5 7.70837ZM12.5 16.0417C12.8452 16.0417 13.125 16.3215 13.125 16.6667V16.8334C13.125 17.1786 12.8452 17.4584 12.5 17.4584C12.1548 17.4584 11.875 17.1786 11.875 16.8334V16.6667C11.875 16.3215 12.1548 16.0417 12.5 16.0417Z" fill="#18303F"/>
</g>
</svg>

<svg width="25" height="25" viewBox="0 0 25 25" fill="none"><g id="alert"><path id="iconDefault" fill-rule="evenodd" clip-rule="evenodd" d="M12.5 3.958a8.542 8.542 0 1 0 0 17.084 8.542 8.542 0 0 0 0-17.084ZM2.708 12.5c0-5.408 4.384-9.792 9.792-9.792 5.408 0 9.792 4.384 9.792 9.792 0 5.408-4.384 9.792-9.792 9.792-5.408 0-9.792-4.384-9.792-9.792ZM12.5 7.708c.345 0 .625.28.625.625v5a.625.625 0 1 1-1.25 0v-5c0-.345.28-.625.625-.625Zm0 8.334c.345 0 .625.28.625.625v.166a.625.625 0 1 1-1.25 0v-.166c0-.346.28-.625.625-.625Z" fill="#18303F"/></g></svg>
